X: 43338
T: World's End, The
R: reel
M: 4/4
K: Bminor
|:F2BF dFBF|~F2BA F~E3|F2BF dF B/c/d|cAAe cBBA|
F2BF dFBF|~F2BA F~E3|F2BF dF B/c/d|cAec B4:|
|:Bcdc B3c|dcBA F~E3|Bcd2 Bcde|fdgf edcA|
B/c/d cA B/c/d cA|d2cA F~E3|~G3A B2 B/c/d|edcA B4:|

